X: 23527
T: Lieutenant Howard Douglas
R: strathspey
M: 4/4
K: Ddorian
d>c|:A<dd>c A<dd<e|C>Ec>A G/F/E/D/ C>E|D<dd>c A<dd<e|f>aad>e d/d/d:|
e/f/g|a<df>d a/g/f/e/ f<d|g>ce<c g>ce<g|a<df>d a/g/f/e/ f<d|c<ag>e d/d/d e/f/g|
a<df>d a/g/f/e/ f<d|g<ce<c g>ce<g|a>ge<c f>ed<e|d>cA<c d/d/d||

